X:565
T:Black and Tan Polka. GHW.019
O:england
M:2/4
L:1/16
Q:100
S:George H.Watson,MS,Swanton Abbott,Norfolk,1850-1880
R:Polka
A:Norfolk
N:A flat in third to last bar left as in MS, but probably should be B
N:flat as in 6th. bar of last par
K:G
d2|g2g2 fagf|e2e2d3B|c2c2 BdcB|ABAG FED2|g2g2 fagf|e2e2d3B|cedc BdcB|A2
g
2g2 d2|
g2g2 fagf|e2e2d3B|.c2.c2 BdcB|ABAG FED2|.g2.g2 fagf|e2e2d3B|cedc BdcB|A
